svgs/thin/square-xmark.svg

<svg xmlns="http://www.w3.org/2000/svg" viewBox="0 0 448 512"><!--! Font Awesome Pro 6.0.0-alpha3 by @fontawesome - https://fontawesome.com License - https://fontawesome.com/license (Commercial License) --><path d="M384 32H64C28.65 32 0 60.66 0 96v320c0 35.34 28.65 64 64 64h320c35.35 0 64-28.66 64-64V96C448 60.66 419.3 32 384 32zM432 416c0 26.47-21.53 48-48 48H64c-26.47 0-48-21.53-48-48V96c0-26.47 21.53-48 48-48h320c26.47 0 48 21.53 48 48V416zM301.7 178.3c-3.125-3.125-8.188-3.125-11.31 0L224 244.7L157.7 178.3c-3.125-3.125-8.188-3.125-11.31 0s-3.125 8.188 0 11.31L212.7 255.1l-66.34 66.34c-3.125 3.125-3.125 8.188 0 11.31c3.127 3.127 8.186 3.127 11.31 0L224 267.3l66.34 66.34c3.127 3.127 8.186 3.127 11.31 0c3.125-3.125 3.125-8.188 0-11.31L235.3 255.1l66.34-66.34C304.8 186.5 304.8 181.5 301.7 178.3z"/></svg>

<svg xmlns="http://www.w3.org/2000/svg" viewBox="0 0 448 512"><!-- Font Awesome Pro 6.0.0-alpha2 by @fontawesome - https://fontawesome.com License - https://fontawesome.com/license (Commercial License) --><path d="M384 32H64C28.654 32 0 60.656 0 96V416C0 451.344 28.654 480 64 480H384C419.346 480 448 451.344 448 416V96C448 60.656 419.346 32 384 32ZM432 416C432 442.469 410.467 464 384 464H64C37.533 464 16 442.469 16 416V96C16 69.531 37.533 48 64 48H384C410.467 48 432 69.531 432 96V416ZM301.656 178.344C298.531 175.219 293.469 175.219 290.344 178.344L224 244.686L157.656 178.344C154.531 175.219 149.469 175.219 146.344 178.344S143.219 186.531 146.344 189.656L212.688 255.998L146.344 322.342C143.219 325.467 143.219 330.529 146.344 333.654C149.471 336.781 154.529 336.781 157.656 333.654L224 267.311L290.344 333.654C293.471 336.781 298.529 336.781 301.656 333.654C304.781 330.529 304.781 325.467 301.656 322.342L235.312 255.998L301.656 189.656C304.781 186.531 304.781 181.469 301.656 178.344Z"/></svg>
